!!!OTL: Die wiedergefundene Schwester (Suedeli - Ballade).
!!!OTL-incipit: Es reitet ein Reiter wohl durch das Land.
!!!ARE: Europa, Mitteleuropa, Deutschland / France, Lothringen, Walschbronn
!!!YOR: 4, S. 31
!!    1928 gedruckt in Heidelberg
!!!SCT: Q0072H
!!!TXL: @@DE
!!!YEM: Copyright 1995, estate of Helmut Schaffrath.
**kern	**text
*ICvox	*
*M3/8	*
*k[f#]	*
*G:	*
!LO:TX:a:t=Mäßig nicht zu langsam.	!
{8g	Es
=1	=1
8g	rei-
8b	-tet
8b	ein
=2	=2
8b	Reiter
8a	.
8g	wohl
=3	=3
4a	durch
8b	das
=4	=4
8a	Land.
8r}	.
{8b	Frau
=5	=5
8bL	Wir-
8aJ	.
8g	-tin
=6	=6
4a	war
8dd	ihm
=7	=7
8ccL	un-
8bJ	.
8a	-be-
=8	=8
8g	-kannt.
8r}	.
{8b	Frau
=9	=9
4dd	Wir-
8b	-tin
=10	=10
8ddL	in
8eeJ	.
8dd	der
=11	=11
8ccL	Tü-
8bJ	.
8a	-re
=12	=12
8g	ſtand,
8r}	.
{8g	Braut
=13	=13
8b	Son-
8b	-de-
8cc	-li
=14	=14
4dd	liegt
8b	im
=15	=15
8a	o-
8b	-be-
8a	-ren
=16	=16
8g	Saal.
8r}	.
==	==
!!!AGN: Ballade, Entfuehrung, Adelige als Dienstmagd, Rueckkehr
!!!ONB: ESAC (Essen Associative Code) Database: BALLADE
!!!AMT: simple triple
!!!AIN: vox
!!!EED: Helmut Schaffrath
!!!EEV: 1.0
!!!source: Deutsche Volkslieder mit ihren Melodien. Herausgegeben vom Deutschen Volksliedarchiv. Vierter Band. Berlin 1959.
!!!page: 31
!!!ENC: Anna Maria Matuszewska
!!!EEV: 2025/02/21
*-	*-
